;FLAVOR:UltiGCode
;TIME:2973
;MATERIAL:8159
;MATERIAL2:0

;Layer count: 144
;LAYER:0
M107
G0 F9000 X30.523 Y31.154 Z0.300
;TYPE:SKIRT
G1 F1800 X31.589 Y30.178 E0.21680
G1 X31.907 Y29.860 E0.28426
G1 X34.019 Y28.754 E0.64187
G1 X34.455 Y28.523 E0.71588
G1 X36.525 Y28.129 E1.03195
G1 X36.857 Y28.051 E1.08311
G1 X81.962 Y28.051 E7.84886
G1 X83.072 Y28.050 E8.01536
G1 X85.537 Y28.521 E8.39180
G1 X87.182 Y29.381 E8.67023
G1 X88.029 Y29.825 E8.81368
G1 X89.051 Y30.760 E9.02146
G1 X89.467 Y31.140 E9.10597
G1 X90.225 Y32.017 E9.27985
G1 X90.773 Y32.647 E9.40510
G1 X91.646 Y33.874 E9.63098
G1 X91.943 Y34.304 E9.70937
G1 X92.796 Y35.782 E9.96534
G1 X93.560 Y38.463 E10.38350
G1 X93.740 Y40.210 E10.64694
G1 X93.816 Y40.932 E10.75584
G1 X93.816 Y91.950 E18.40854
G1 X26.185 Y91.950 E28.55319
G1 X26.184 Y40.933 E36.20574
G1 X26.437 Y38.486 E36.57474
G1 X27.195 Y35.813 E36.99150
G1 X28.049 Y34.317 E37.24989
G1 X29.128 Y32.763 E37.53367
G1 X30.523 Y31.154 E37.85310
G10
G0 F9000 X33.394 Y33.949
;TYPE:WALL-INNER
G11
G1 F1800 X34.293 Y33.126 E38.03592
G1 X35.794 Y32.340 E38.29008
G1 X37.310 Y32.051 E38.52157
G1 X57.185 Y32.051 E41.50282
G1 X57.185 Y87.950 E49.88767
G1 X30.185 Y87.950 E53.93767
G1 X30.184 Y41.139 E60.95932
G1 X30.380 Y39.246 E61.24479
G1 X30.912 Y37.370 E61.53729
G1 X31.433 Y36.457 E61.69496
G1 X32.291 Y35.222 E61.92053
G1 X33.394 Y33.949 E62.17319
G0 F9000 X33.039 Y33.596
;TYPE:WALL-OUTER
G1 F1800 X34.003 Y32.713 E62.36928
G1 X35.625 Y31.864 E62.64390
G1 X37.264 Y31.551 E62.89419
G1 X57.685 Y31.551 E65.95734
G1 X57.685 Y88.450 E74.49219
G1 X29.685 Y88.450 E78.69219
G1 X29.684 Y41.117 E85.79214
G1 X29.888 Y39.149 E86.08892
G1 X30.447 Y37.176 E86.39652
G1 X31.011 Y36.187 E86.56730
G1 X31.894 Y34.917 E86.79932
G1 X33.039 Y33.596 E87.06154
G0 F9000 X33.622 Y33.976
;TYPE:SKIN
G1 F1800 X57.009 Y57.363 E92.02267
G0 F9000 X57.009 Y58.070
G1 F1800 X33.282 Y34.343 E97.05593
G0 F9000 X32.954 Y34.722
G1 F1800 X57.009 Y58.777 E102.15877
G0 F9000 X57.009 Y59.484
G1 F1800 X32.626 Y35.101 E107.33118
G0 F9000 X32.313 Y35.495
G1 F1800 X57.009 Y60.191 E112.56999
G0 F9000 X57.009 Y60.898
G1 F1800 X32.023 Y35.912 E117.87033
G0 F9000 X31.733 Y36.329
G1 F1800 X57.009 Y61.605 E123.23217
G0 F9000 X57.009 Y62.313
G1 F1800 X31.459 Y36.762 E128.65225
G0 F9000 X31.202 Y37.212
G1 F1800 X57.009 Y63.020 E134.12685
G0 F9000 X57.009 Y63.727
G1 F1800 X30.996 Y37.713 E139.64515
G0 F9000 X30.840 Y38.265
G1 F1800 X57.009 Y64.434 E145.19643
G0 F9000 X57.009 Y65.141
G1 F1800 X30.684 Y38.815 E150.78091
G0 F9000 X30.542 Y39.380
G1 F1800 X57.009 Y65.848 E156.39552
G0 F9000 X57.009 Y66.555
G1 F1800 X30.475 Y40.021 E162.02423
G0 F9000 X30.409 Y40.662
G1 F1800 X57.009 Y67.262 E167.66694
G0 F9000 X57.009 Y67.969
G1 F1800 X30.358 Y41.319 E173.32037
G0 F9000 X30.358 Y42.026
G1 F1800 X57.009 Y68.677 E178.97390
G0 F9000 X57.009 Y69.384
G1 F1800 X30.358 Y42.733 E184.62743
G0 F9000 X30.358 Y43.440
G1 F1800 X57.009 Y70.091 E190.28096
G0 F9000 X57.009 Y70.798
G1 F1800 X30.358 Y44.147 E195.93449
G0 F9000 X30.358 Y44.854
G1 F1800 X57.009 Y71.505 E201.58802
G0 F9000 X57.009 Y72.212
G1 F1800 X30.358 Y45.561 E207.24155
G0 F9000 X30.358 Y46.268
G1 F1800 X57.009 Y72.919 E212.89508
G0 F9000 X57.009 Y73.626
G1 F1800 X30.358 Y46.975 E218.54861
G0 F9000 X30.358 Y47.683
G1 F1800 X57.009 Y74.333 E224.20204
G0 F9000 X57.009 Y75.041
G1 F1800 X30.358 Y48.390 E229.85557
G0 F9000 X30.358 Y49.097
G1 F1800 X57.009 Y75.748 E235.50910
G0 F9000 X57.009 Y76.455
G1 F1800 X30.358 Y49.804 E241.16263
G0 F9000 X30.358 Y50.511
G1 F1800 X57.009 Y77.162 E246.81616
G0 F9000 X57.009 Y77.869
G1 F1800 X30.358 Y51.218 E252.46969
G0 F9000 X30.358 Y51.925
G1 F1800 X57.009 Y78.576 E258.12322
G0 F9000 X57.009 Y79.283
G1 F1800 X30.358 Y52.632 E263.77675
G0 F9000 X30.358 Y53.339
G1 F1800 X57.009 Y79.990 E269.43028
G0 F9000 X57.009 Y80.697
G1 F1800 X30.358 Y54.046 E275.08382
G0 F9000 X30.358 Y54.754
G1 F1800 X57.009 Y81.404 E280.73724
G0 F9000 X57.009 Y82.112
G1 F1800 X30.358 Y55.461 E286.39077
G0 F9000 X30.358 Y56.168
G1 F1800 X57.009 Y82.819 E292.04430
G0 F9000 X57.009 Y83.526
G1 F1800 X30.358 Y56.875 E297.69783
G0 F9000 X30.358 Y57.582
G1 F1800 X57.009 Y84.233 E303.35136
G0 F9000 X57.009 Y84.940
G1 F1800 X30.358 Y58.289 E309.00489
G0 F9000 X30.358 Y58.996
G1 F1800 X57.009 Y85.647 E314.65843
G0 F9000 X57.009 Y86.354
G1 F1800 X30.358 Y59.703 E320.31196
G0 F9000 X30.358 Y60.410
G1 F1800 X57.009 Y87.061 E325.96549
G0 F9000 X57.009 Y87.768
G1 F1800 X30.358 Y61.118 E331.61891
G0 F9000 X30.358 Y61.825
G1 F1800 X56.308 Y87.774 E337.12363
G0 F9000 X55.601 Y87.774
G1 F1800 X30.358 Y62.532 E342.47838
G0 F9000 X30.358 Y63.239
G1 F1800 X54.894 Y87.774 E347.68314
G0 F9000 X54.187 Y87.774
G1 F1800 X30.358 Y63.946 E352.73793
G0 F9000 X30.359 Y64.654
G1 F1800 X53.479 Y87.774 E357.64242
G0 F9000 X52.772 Y87.774
G1 F1800 X30.359 Y65.361 E362.39694
G0 F9000 X30.359 Y66.068
G1 F1800 X52.065 Y87.774 E367.00147
G0 F9000 X51.358 Y87.774
G1 F1800 X30.359 Y66.775 E371.45604
G0 F9000 X30.359 Y67.482
G1 F1800 X50.651 Y87.774 E375.76062
G0 F9000 X49.944 Y87.774
G1 F1800 X30.359 Y68.189 E379.91522
G0 F9000 X30.359 Y68.896
G1 F1800 X49.237 Y87.774 E383.91985
G0 F9000 X48.530 Y87.774
G1 F1800 X30.359 Y69.604 E387.77440
G0 F9000 X30.359 Y70.311
G1 F1800 X47.823 Y87.774 E391.47897
G0 F9000 X47.115 Y87.774
G1 F1800 X30.359 Y71.018 E395.03345
G0 F9000 X30.359 Y71.725
G1 F1800 X46.408 Y87.774 E398.43796
G0 F9000 X45.701 Y87.774
G1 F1800 X30.359 Y72.432 E401.69249
G0 F9000 X30.359 Y73.139
G1 F1800 X44.994 Y87.774 E404.79704
G0 F9000 X44.287 Y87.774
G1 F1800 X30.359 Y73.846 E407.75161
G0 F9000 X30.359 Y74.553
G1 F1800 X43.580 Y87.774 E410.55621
G0 F9000 X42.873 Y87.774
G1 F1800 X30.359 Y75.260 E413.21083
G0 F9000 X30.359 Y75.968
G1 F1800 X42.166 Y87.774 E415.71537
G0 F9000 X41.459 Y87.774
G1 F1800 X30.359 Y76.675 E418.06993
G0 F9000 X30.359 Y77.382
G1 F1800 X40.751 Y87.774 E420.27440
G0 F9000 X40.044 Y87.774
G1 F1800 X30.359 Y78.089 E422.32890
G0 F9000 X30.359 Y78.796
G1 F1800 X39.337 Y87.774 E424.23342
G0 F9000 X38.630 Y87.774
G1 F1800 X30.359 Y79.503 E425.98797
G0 F9000 X30.359 Y80.210
G1 F1800 X37.923 Y87.774 E427.59254
G0 F9000 X37.216 Y87.774
G1 F1800 X30.359 Y80.917 E429.04712
G0 F9000 X30.359 Y81.624
G1 F1800 X36.509 Y87.774 E430.35174
G0 F9000 X35.802 Y87.774
G1 F1800 X30.359 Y82.331 E431.50637
G0 F9000 X30.359 Y83.039
G1 F1800 X35.095 Y87.774 E432.51092
G0 F9000 X34.388 Y87.774
G1 F1800 X30.359 Y83.746 E433.36550
G0 F9000 X30.359 Y84.453
G1 F1800 X33.680 Y87.774 E434.06999
G0 F9000 X32.973 Y87.774
G1 F1800 X30.359 Y85.160 E434.62450
G0 F9000 X30.359 Y85.867
G1 F1800 X32.266 Y87.774 E435.02904
G0 F9000 X31.559 Y87.774
G1 F1800 X30.359 Y86.574 E435.28359
G0 F9000 X30.359 Y87.281
G1 F1800 X30.852 Y87.774 E435.38818
G0 F9000 X57.009 Y56.656
G1 F1800 X33.992 Y33.639 E440.27082
G0 F9000 X34.361 Y33.301
G1 F1800 X57.009 Y55.949 E445.07518
G0 F9000 X57.009 Y55.242
G1 F1800 X34.816 Y33.048 E449.78314
G0 F9000 X35.281 Y32.806
G1 F1800 X57.009 Y54.534 E454.39234
G0 F9000 X57.009 Y53.827
G1 F1800 X35.744 Y32.562 E458.90333
G0 F9000 X36.309 Y32.420
G1 F1800 X57.009 Y53.120 E463.29446
G0 F9000 X57.009 Y52.413
G1 F1800 X36.903 Y32.307 E467.55959
G0 F9000 X37.529 Y32.226
G1 F1800 X57.009 Y51.706 E471.69192
G0 F9000 X57.009 Y50.999
G1 F1800 X38.236 Y32.226 E475.67428
G0 F9000 X38.943 Y32.226
G1 F1800 X57.009 Y50.292 E479.50665
G0 F9000 X57.009 Y49.585
G1 F1800 X39.651 Y32.226 E483.18895
G0 F9000 X40.358 Y32.226
G1 F1800 X57.009 Y48.878 E486.72126
G0 F9000 X57.009 Y48.170
G1 F1800 X41.065 Y32.226 E490.10350
G0 F9000 X41.772 Y32.226
G1 F1800 X57.009 Y47.463 E493.33575
G0 F9000 X57.009 Y46.756
G1 F1800 X42.479 Y32.226 E496.41803
G0 F9000 X43.186 Y32.226
G1 F1800 X57.009 Y46.049 E499.35033
G0 F9000 X57.009 Y45.342
G1 F1800 X43.893 Y32.226 E502.13266
G0 F9000 X44.600 Y32.226
G1 F1800 X57.009 Y44.635 E504.76500
G0 F9000 X57.009 Y43.928
G1 F1800 X45.307 Y32.226 E507.24737
G0 F9000 X46.014 Y32.226
G1 F1800 X57.009 Y43.221 E509.57976
G0 F9000 X57.009 Y42.514
G1 F1800 X46.722 Y32.226 E511.76207
G0 F9000 X47.429 Y32.226
G1 F1800 X57.009 Y41.806 E513.79430
G0 F9000 X57.009 Y41.099
G1 F1800 X48.136 Y32.226 E515.67654
G0 F9000 X48.843 Y32.226
G1 F1800 X57.009 Y40.392 E517.40881
G0 F9000 X57.009 Y39.685
G1 F1800 X49.550 Y32.226 E518.99111
G0 F9000 X50.257 Y32.226
G1 F1800 X57.009 Y38.978 E520.42342
G0 F9000 X57.009 Y38.271
G1 F1800 X50.964 Y32.226 E521.70576
G0 F9000 X51.671 Y32.226
G1 F1800 X57.009 Y37.564 E522.83812
G0 F9000 X57.009 Y36.857
G1 F1800 X52.378 Y32.226 E523.82051
G0 F9000 X53.086 Y32.226
G1 F1800 X57.009 Y36.150 E524.65281
G0 F9000 X57.009 Y35.443
G1 F1800 X53.793 Y32.226 E525.33513
G0 F9000 X54.500 Y32.226
G1 F1800 X57.009 Y34.735 E525.86737
G0 F9000 X57.009 Y34.028
G1 F1800 X55.207 Y32.226 E526.24963
G0 F9000 X55.914 Y32.226
G1 F1800 X57.009 Y33.321 E526.48191
G0 F9000 X57.009 Y32.614
G1 F1800 X56.621 Y32.226 E526.56422
G10
G0 F9000 X62.816 Y32.051
;TYPE:WALL-INNER
G11
G1 F1800 X82.693 Y32.050 E529.54577
G1 X84.206 Y32.339 E529.77682
G1 X85.713 Y33.128 E530.03198
G1 X86.595 Y33.934 E530.21120
G1 X87.205 Y34.640 E530.35116
G1 X87.626 Y35.124 E530.44738
G1 X88.367 Y36.165 E530.63905
G1 X88.554 Y36.436 E530.68844
G1 X89.085 Y37.356 E530.84777
G1 X89.617 Y39.222 E531.13883
G1 X89.762 Y40.628 E531.35084
G1 X89.816 Y41.142 E531.42837
G1 X89.816 Y87.950 E538.44957
G1 X62.816 Y87.950 E542.49957
G1 X62.816 Y32.051 E550.88442
G0 F9000 X62.316 Y31.551
;TYPE:WALL-OUTER
G1 F1800 X82.740 Y31.550 E553.94802
G1 X84.373 Y31.862 E554.19740
G1 X86.002 Y32.715 E554.47322
G1 X86.954 Y33.586 E554.66677
G1 X88.019 Y34.814 E554.91059
G1 X88.778 Y35.881 E555.10701
G1 X88.980 Y36.173 E555.16027
G1 X89.549 Y37.160 E555.33116
G1 X90.109 Y39.124 E555.63750
G1 X90.316 Y41.118 E555.93820
G1 X90.316 Y88.450 E563.03800
G1 X62.316 Y88.450 E567.23800
G1 X62.316 Y31.551 E575.77285
G0 F9000 X62.990 Y32.231
;TYPE:SKIN
G1 F1800 X89.640 Y58.881 E581.42617
G0 F9000 X89.640 Y59.588
G1 F1800 X62.990 Y32.938 E587.07949
G0 F9000 X62.990 Y33.645
G1 F1800 X89.640 Y60.295 E592.73281
G0 F9000 X89.640 Y61.002
G1 F1800 X62.990 Y34.352 E598.38613
G0 F9000 X62.990 Y35.059
G1 F1800 X89.640 Y61.709 E604.03945
G0 F9000 X89.640 Y62.417
G1 F1800 X62.990 Y35.766 E609.69287
G0 F9000 X62.990 Y36.473
G1 F1800 X89.640 Y63.124 E615.34630
G0 F9000 X89.640 Y63.831
G1 F1800 X62.990 Y37.181 E620.99962
G0 F9000 X62.990 Y37.888
G1 F1800 X89.640 Y64.538 E626.65294
G0 F9000 X89.640 Y65.245
G1 F1800 X62.990 Y38.595 E632.30625
G0 F9000 X62.990 Y39.302
G1 F1800 X89.640 Y65.952 E637.95957
G0 F9000 X89.640 Y66.659
G1 F1800 X62.990 Y40.009 E643.61289
G0 F9000 X62.990 Y40.716
G1 F1800 X89.640 Y67.366 E649.26621
G0 F9000 X89.640 Y68.073
G1 F1800 X62.990 Y41.423 E654.91953
G0 F9000 X62.990 Y42.130
G1 F1800 X89.640 Y68.780 E660.57285
G0 F9000 X89.640 Y69.488
G1 F1800 X62.990 Y42.837 E666.22627
G0 F9000 X62.990 Y43.545
G1 F1800 X89.640 Y70.195 E671.87959
G0 F9000 X89.640 Y70.902
G1 F1800 X62.990 Y44.252 E677.53291
G0 F9000 X62.990 Y44.959
G1 F1800 X89.640 Y71.609 E683.18623
G0 F9000 X89.640 Y72.316
G1 F1800 X62.990 Y45.666 E688.83955
G0 F9000 X62.990 Y46.373
G1 F1800 X89.640 Y73.023 E694.49287
G0 F9000 X89.640 Y73.730
G1 F1800 X62.990 Y47.080 E700.14618
G0 F9000 X62.990 Y47.787
G1 F1800 X89.640 Y74.437 E705.79950
G0 F9000 X89.640 Y75.144
G1 F1800 X62.990 Y48.494 E711.45282
G0 F9000 X62.990 Y49.201
G1 F1800 X89.640 Y75.852 E717.10625
G0 F9000 X89.640 Y76.559
G1 F1800 X62.990 Y49.909 E722.75957
G0 F9000 X62.990 Y50.616
G1 F1800 X89.640 Y77.266 E728.41288
G0 F9000 X89.640 Y77.973
G1 F1800 X62.990 Y51.323 E734.06620
G0 F9000 X62.990 Y52.030
G1 F1800 X89.640 Y78.680 E739.71952
G0 F9000 X89.640 Y79.387
G1 F1800 X62.990 Y52.737 E745.37284
G0 F9000 X62.990 Y53.444
G1 F1800 X89.640 Y80.094 E751.02616
G0 F9000 X89.640 Y80.801
G1 F1800 X62.990 Y54.151 E756.67948
G0 F9000 X62.990 Y54.858
G1 F1800 X89.640 Y81.508 E762.33280
G0 F9000 X89.640 Y82.216
G1 F1800 X62.990 Y55.565 E767.98622
G0 F9000 X62.990 Y56.272
G1 F1800 X89.640 Y82.923 E773.63965
G0 F9000 X89.640 Y83.630
G1 F1800 X62.990 Y56.980 E779.29297
G0 F9000 X62.990 Y57.687
G1 F1800 X89.640 Y84.337 E784.94628
G0 F9000 X89.640 Y85.044
G1 F1800 X62.990 Y58.394 E790.59960
G0 F9000 X62.990 Y59.101
G1 F1800 X89.640 Y85.751 E796.25292
G0 F9000 X89.640 Y86.458
G1 F1800 X62.990 Y59.808 E801.90624
G0 F9000 X62.990 Y60.515
G1 F1800 X89.640 Y87.165 E807.55956
G0 F9000 X89.542 Y87.774
G1 F1800 X62.990 Y61.222 E813.19209
G0 F9000 X62.990 Y61.929
G1 F1800 X88.835 Y87.774 E818.67464
G0 F9000 X88.128 Y87.774
G1 F1800 X62.990 Y62.636 E824.00722
G0 F9000 X62.990 Y63.344
G1 F1800 X87.421 Y87.774 E829.18971
G0 F9000 X86.713 Y87.774
G1 F1800 X62.990 Y64.051 E834.22212
G0 F9000 X62.990 Y64.758
G1 F1800 X86.006 Y87.774 E839.10455
G0 F9000 X85.299 Y87.774
G1 F1800 X62.990 Y65.465 E843.83700
G0 F9000 X62.990 Y66.172
G1 F1800 X84.592 Y87.774 E848.41948
G0 F9000 X83.885 Y87.774
G1 F1800 X62.990 Y66.879 E852.85198
G0 F9000 X62.990 Y67.586
G1 F1800 X83.178 Y87.774 E857.13450
G0 F9000 X82.471 Y87.774
G1 F1800 X62.990 Y68.293 E861.26704
G0 F9000 X62.990 Y69.000
G1 F1800 X81.764 Y87.774 E865.24961
G0 F9000 X81.057 Y87.774
G1 F1800 X62.990 Y69.708 E869.08209
G0 F9000 X62.990 Y70.415
G1 F1800 X80.349 Y87.774 E872.76449
G0 F9000 X79.642 Y87.774
G1 F1800 X62.990 Y71.122 E876.29691
G0 F9000 X62.990 Y71.829
G1 F1800 X78.935 Y87.774 E879.67936
G0 F9000 X78.228 Y87.774
G1 F1800 X62.990 Y72.536 E882.91183
G0 F9000 X62.990 Y73.243
G1 F1800 X77.521 Y87.774 E885.99432
G0 F9000 X76.814 Y87.774
G1 F1800 X62.990 Y73.950 E888.92683
G0 F9000 X62.990 Y74.657
G1 F1800 X76.106 Y87.773 E891.70915
G0 F9000 X75.399 Y87.773
G1 F1800 X62.990 Y75.364 E894.34150
G0 F9000 X62.990 Y76.071
G1 F1800 X74.692 Y87.773 E896.82387
G0 F9000 X73.985 Y87.773
G1 F1800 X62.990 Y76.779 E899.15616
G0 F9000 X62.990 Y77.486
G1 F1800 X73.278 Y87.773 E901.33846
G0 F9000 X72.571 Y87.773
G1 F1800 X62.990 Y78.193 E903.37080
G0 F9000 X62.990 Y78.900
G1 F1800 X71.863 Y87.773 E905.25304
G0 F9000 X71.156 Y87.773
G1 F1800 X62.990 Y79.607 E906.98531
G0 F9000 X62.990 Y80.314
G1 F1800 X70.449 Y87.773 E908.56761
G0 F9000 X69.742 Y87.773
G1 F1800 X62.990 Y81.021 E909.99992
G0 F9000 X62.990 Y81.728
G1 F1800 X69.035 Y87.773 E911.28226
G0 F9000 X68.328 Y87.773
G1 F1800 X62.990 Y82.435 E912.41462
G0 F9000 X62.990 Y83.143
G1 F1800 X67.621 Y87.773 E913.39690
G0 F9000 X66.914 Y87.773
G1 F1800 X62.990 Y83.850 E914.22920
G0 F9000 X62.990 Y84.557
G1 F1800 X66.207 Y87.773 E914.91152
G0 F9000 X65.500 Y87.773
G1 F1800 X62.990 Y85.264 E915.44387
G0 F9000 X62.990 Y85.971
G1 F1800 X64.792 Y87.773 E915.82613
G0 F9000 X64.085 Y87.773
G1 F1800 X62.990 Y86.678 E916.05841
G0 F9000 X62.990 Y87.385
G1 F1800 X63.378 Y87.773 E916.14072
G0 F9000 X89.640 Y58.174
G1 F1800 X63.691 Y32.225 E921.64533
G0 F9000 X64.399 Y32.225
G1 F1800 X89.640 Y57.467 E926.99986
G0 F9000 X89.640 Y56.760
G1 F1800 X65.106 Y32.225 E932.20442
G0 F9000 X65.813 Y32.225
G1 F1800 X89.640 Y56.053 E937.25899
G0 F9000 X89.640 Y55.345
G1 F1800 X66.520 Y32.225 E942.16349
G0 F9000 X67.227 Y32.225
G1 F1800 X89.640 Y54.638 E946.91800
G0 F9000 X89.640 Y53.931
G1 F1800 X67.934 Y32.225 E951.52254
G0 F9000 X68.641 Y32.225
G1 F1800 X89.640 Y53.224 E955.97710
G0 F9000 X89.640 Y52.517
G1 F1800 X69.348 Y32.225 E960.28168
G0 F9000 X70.055 Y32.225
G1 F1800 X89.640 Y51.810 E964.43629
G0 F9000 X89.640 Y51.103
G1 F1800 X70.763 Y32.225 E968.44081
G0 F9000 X71.470 Y32.225
G1 F1800 X89.640 Y50.396 E972.29536
G0 F9000 X89.640 Y49.689
G1 F1800 X72.177 Y32.225 E975.99992
G0 F9000 X72.884 Y32.225
G1 F1800 X89.640 Y48.981 E979.55441
G0 F9000 X89.640 Y48.274
G1 F1800 X73.591 Y32.225 E982.95892
G0 F9000 X74.298 Y32.225
G1 F1800 X89.640 Y47.567 E986.21345
G0 F9000 X89.640 Y46.860
G1 F1800 X75.005 Y32.225 E989.31800
G0 F9000 X75.712 Y32.225
G1 F1800 X89.640 Y46.153 E992.27257
G0 F9000 X89.640 Y45.446
G1 F1800 X76.419 Y32.225 E995.07717
G0 F9000 X77.126 Y32.225
G1 F1800 X89.640 Y44.739 E997.73179
G0 F9000 X89.640 Y44.032
G1 F1800 X77.834 Y32.225 E1000.23633
G0 F9000 X78.541 Y32.225
G1 F1800 X89.640 Y43.325 E1002.59089
G0 F9000 X89.640 Y42.618
